!!!!SEGMENT: pl-wtm--a-43-196-99--001-008_kazuro-stanislaw--25-piesni-dzieciecych-z-fortepianem-op-49-zolnierska-kapela.krn
!!!cenid: 19xx:204
!!!COM: Kazuro, Stanisław
!!!COM-rismID: pe50047136
!!!CDT: 1881/08/02-1961/11/30
!!!CNT: Polish
!!!GTL: 25 Pieśni dziecięcych z fortepianem, op. 49
!!!OTL: Żołnierska kapela
!!!OMV: 008
!!!PDT: 1950
!!!AGN:
!!!YEC: Copyright 2022 Narodowy Instytut Fryderyka Chopina (https://polishscores.org)
!!!YEM: License CC-BY-4.0 (https://creativecommons.org/licenses/by/4.0)
!!!SMS-siglum: PL-Wtm
!!!SMS-shelfmark: A-43.196/99
!!!SMS-variant:
!!!SMS-altvar:
!!!SMS-shelfwork: 001-008 G
!!!NIFC-rismSourceID: 1001164821
!!!NIFC-rismChildID: 1001164821
!!!NIFC-islandoraID: pl-wtm:43198
!!!URL-pdf-islandora: https://repozytorium.nifc.pl/islandora/object/pl-wtm:43198/datastream/PDF/view
!!!URL-scan: https://polish.musicsources.pl/pl/lokalizacje/galeria/druki-muzyczne/22428/10 @EN{Scan on Polish Music Sources Website} @PL{Skany w portalu Dziedzictwo Muzyki Polskiej w otwartym dostępie}
!!!IIIF:
!!!ONB-nifc:
!!!AIN: 1 canto 1 piano
!!!key: G
**kern	**kern	**dynam	**kern	**text	**text	**text	**dynam
*part2	*part2	*part2	*part1	*part1	*part1	*part1	*part1
*staff3	*staff2	*staff2/3	*staff1	*staff1	*staff1	*staff1	*
*IGacmp	*IGacmp	*	*	*	*	*	*
*ICklav	*ICklav	*	*ICvox	*	*	*	*
*Ipiano	*Ipiano	*	*Icanto	*	*	*	*
*I"	*I"	*	*I"	*	*	*	*
*I'	*I'	*	*I'	*	*	*	*
*clefF4	*clefG2	*	*clefG2	*	*	*	*
*k[f#]	*k[f#]	*	*k[f#]	*	*	*	*
*G:	*G:	*	*G:	*	*	*	*
*M2/4	*M2/4	*	*M2/4	*	*	*	*
*>[A,B,C,B,C,B,C]	*>[A,B,C,B,C,B,C]	*>[A,B,C,B,C,B,C]	*>[A,B,C,B,C,B,C]	*>[A,B,C,B,C,B,C]	*>[A,B,C,B,C,B,C]	*>[A,B,C,B,C,B,C]	*>[A,B,C,B,C,B,C]
*>A	*>A	*>A	*>A	*>A	*>A	*>A	*>A
!!LO:TX:t=P:problem:oddech jako v
!!LO:TX:a:B:t=Tempo di marcia.
!	!LO:TX:b:t=Trąbka.	!	!	!	!	!	!
8r	8d/	.	8r	.	.	.	.
=1	=1	=1	=1	=1	=1	=1	=1
!	!LO:TUP:a:problem:klamra łukowa	!	!	!	!	!	!
2r	12g/L	.	2r	.	.	.	.
.	12d/	.	.	.	.	.	.
.	12g/J	.	.	.	.	.	.
!	!LO:TUP:b:problem:klamra łukowa	!	!	!	!	!	!
.	12b\L	.	.	.	.	.	.
.	12g\	.	.	.	.	.	.
.	12b\J	.	.	.	.	.	.
=2	=2	=2	=2	=2	=2	=2	=2
2r	8.dd\L	.	2r	.	.	.	.
.	16dd\Jk	.	.	.	.	.	.
.	4dd\	.	.	.	.	.	.
=3	=3	=3	=3	=3	=3	=3	=3
!	!LO:TUP:b:problem:klamra łukowa	!	!	!	!	!	!
2r	12ff#\L	.	2r	.	.	.	.
.	12ee\	.	.	.	.	.	.
.	12dd\J	.	.	.	.	.	.
.	8.b\L	.	.	.	.	.	.
.	16g\Jk	.	.	.	.	.	.
!!LO:LB:g=original
=4	=4	=4	=4	=4	=4	=4	=4
2r	4dd\	.	4r	.	.	.	.
.	8r	.	8r	.	.	.	.
*>B	*>B	*>B	*>B	*>B	*>B	*>B	*>B
*	*	*	*	*v:1	*v:2	*v:3	*
!	!	!	!	!	!	!	!LO:DY:a:rj
.	8d/	mf	8d/	Żo-	Żo-	Żo-	mf
=5	=5	=5	=5	=5	=5	=5	=5
*	*^	*	*	*	*	*	*
(8GG/L	8.b/L	4e 4c\	.	8.b\	-łnie-	-łnie-	-łnie-	.
8C/J	.	.	.	.	.	.	.	.
.	16a/Jk	.	.	16a/	-rska	-rska	-rska	.
8E\L	8g/L	4c 4A\	.	8g,/	my	my	my	.
8F#\J	8e/J	.	.	8e/	ka-	ka-	mu-	.
=6	=6	=6	=6	=6	=6	=6	=6	=6
8G#X\L	4d/	4c\	.	4d/	-pe-	-pe-	-zy-	.
8A\J	.	.	.	.	.	.	.	.
8B\L	8gn/L	8d\L	.	8g,/	-la,	-la,	-ka,	.
8c#X\J)	8bJ 8g/	8e\J	.	8b\	pie-	bę-	ra-	.
=7	=7	=7	=7	=7	=7	=7	=7	=7
(8d\L	8.dd/L	4b 4f#\	.	8.dd\	-cho-	-dzie-	-do-	.
8d#X\J	.	.	.	.	.	.	.	.
.	16cc/Jk	.	.	16cc\	-ty	-my	-sny	.
8e\L	8b/L	8g\L	.	8b\	pie-	za-	gra-	.
16f#\L	8ddn/J	8cc\J	.	8cc\	-rwszy	-wsze	-my	.
16g#X\JJ)	.	.	.	.	.	.	.	.
*clefG2	*	*	*	*	*	*	*	*
!!LO:LB:g=original
=8	=8	=8	=8	=8	=8	=8	=8	=8
*	*	*	*	*	*v:1	*v:2	*v:3	*
4.a/	8ee/L	2cc\	.	4a/	pułk,	grać,	marsz,	.
.	8ff#/J	.	.	.	.	.	.	.
.	8gg/L	.	.	8r	.	.	.	.
8a#X/	16ff#/L	.	.	8cc\	mia-	z cho-	mia-	.
.	16ee/JJ	.	.	.	.	.	.	.
=9	=9	=9	=9	=9	=9	=9	=9	=9
8.b\L	16ee/LL	2dd\	.	8.ee\	-ro-	-rą-	-ro-	.
.	16bb/	.	.	.	.	.	.	.
.	16aa/	.	.	.	.	.	.	.
16cc\Jk	16gg/JJ	.	.	16cc\	-wym	-gwią,	-wym	.
8cc#X\L	8aa/L	.	.	8a/	kro-	bę-	kro-	.
8b\J	8gg/J	.	.	8g/	-kiem	-bnem,	-kiem	.
=10	=10	=10	=10	=10	=10	=10	=10	=10
8.a/L	2ff#/	2ee [2cc\	.	4f#/	na-	trą-	na-	.
16g#X/K	.	.	.	.	.	.	.	.
8e/	.	.	.	8a,/	-przód	-bką,	-przód,	.
8c/J	.	.	.	8e/	za	na	raz,	.
=11	=11	=11	=11	=11	=11	=11	=11	=11
*^	*	*	*	*	*	*	*	*
8f#/L	4B-X\	8.dd/L	4cc\]	.	8.d/	na-	prze-	dwa,	.
8g/J	.	.	.	.	.	.	.	.	.
.	.	16ee/Jk	.	.	16e/	-mi	-dzie	trzy	.
!	!	!	!	!	!LO:N:vis=16	!	!	!	!
4e/	4c\	4ff#/	8dd\L	.	8f#/	wa-	bę-	na-	.
.	.	.	8bn\J	.	8b\	-li	-dziem	-przód	.
*v	*v	*	*	*	*	*	*	*	*
*	*v	*v	*	*	*	*	*	*
*clefF4	*	*	*	*	*	*	*
!!LO:PB:g=original
=12	=12	=12	=12	=12	=12	=12	=12
!	!LO:TX:b:i:t=Fine.	!	!LO:TX:a:i:t=Fine.	!	!	!	!
8.dL 8.B\	4.g/	.	4g/	1. pułk.	2. stać.	3. marsz!	.
16cJk 16A\	.	.	.	.	.	.	.
8B 8D 8GG\	.	.	8r	.	.	.	.
*>C	*>C	*>C	*>C	*>C	*>C	*>C	*>C
8r	8a/	.	8a/	.	1.2.3. A	.	.
=13	=13	=13	=13	=13	=13	=13	=13
*	*^	*	*	*	*	*	*
8E\L	8.dd/L	2g\	.	8.dd\	.	trą-	.	.
8A#X\J	.	.	.	.	.	.	.	.
.	16cc#X/Jk	.	.	16cc#X\	.	-ba	.	.
8B\L	8ee/L	.	.	8ee\	.	na-	.	.
8c#X\J	8b/J	.	.	8b\	.	-sza	.	.
*	*v	*v	*	*	*	*	*	*
=14	=14	=14	=14	=14	=14	=14	=14
!LO:TUP:b:problem:klamra łukowa	!LO:TUP:a:problem:klamra łukowa	!	!	!	!	!	!
12d>\L	12aL 12f#/	.	4a/	.	grzmi:	.	.
!	!LO:TX:b:B:t=Trąbki.	!	!	!	!	!	!
12d> 12A\	12f#/	.	.	.	.	.	.
12d>\J	12aJ 12f#/	.	.	.	.	.	.
!LO:TUP:b:problem:klamra łukowa	!LO:TUP:a:problem:klamra łukowa	!	!	!	!	!	!
12f#>\L	12ddL 12a/	.	8r	.	.	.	.
12d>\	12a 12f#/	.	.	.	.	.	.
.	.	.	8dd\	.	Tra	.	.
12f#>\J	12ddJ 12a/	.	.	.	.	.	.
!!LO:LB:g=original
=15	=15	=15	=15	=15	=15	=15	=15
*	*^	*	*	*	*	*	*
4g'\	8.ff#/L	2a#X\	.	8.ff#\	ta,	.	.	.
!	!LO:N:vis=8	!	!	!	!	!	!	!
.	16ee/K	.	.	16ee\	ta,	.	.	.
8f#'\L	8dd/	.	.	8dd\	ta,	.	.	.
8e'\J	8cc#X/J	.	.	8cc#X\	ta,	.	.	.
=16	=16	=16	=16	=16	=16	=16	=16	=16
*^	*	*	*	*	*	*	*	*
8.d/L	8.G\L	4.b/	4anX\	.	4b\	ti,	.	.	.
16d#X/Jk	16F#\Jk	.	.	.	.	.	.	.	.
4e/	8E\L	.	4g\	.	8r	.	.	.	.
.	8A\J	8cc#X/	.	.	8cc#X\	A	.	.	.
*v	*v	*	*	*	*	*	*	*	*
=17	=17	=17	=17	=17	=17	=17	=17	=17
!LO:TX:b:B:t=Bęben.	!	!	!	!	!	!	!	!
32A#X\LLL	8.ee/L	8.cc#XL 8.g\	.	8.ee\	bę-	.	.	.
32B\	.	.	.	.	.	.	.	.
32A#\	.	.	.	.	.	.	.	.
32B\J	.	.	.	.	.	.	.	.
!LO:TX:t=P:problem:pojedyncza belka	!	!	!	!	!	!	!	!
16A#\	.	.	.	.	.	.	.	.
16B\JJ	16dd/Jk	16bJk 16f#\	.	16dd\	-ben	.	.	.
32E\LLL	8cc#X/L	8g#XL 8c#X\	.	8cc#X\	wa-	.	.	.
32Fn\	.	.	.	.	.	.	.	.
32E\	.	.	.	.	.	.	.	.
32F\JJ	.	.	.	.	.	.	.	.
8E\J	8b/J	8d\J	.	8b\	-rtko	.	.	.
!!LO:LB:g=original
=18	=18	=18	=18	=18	=18	=18	=18	=18
*	*	*^	*	*	*	*	*	*
8F#X\L	4.dd/	4.d\	8a/L	.	4dd\	gra:	.	.	.
8AA#X\J	.	.	8g#X/J	.	.	.	.	.	.
8BB/L	.	.	8gn/L	.	8r	.	.	.	.
8AAn/J	8ryy	8e 8c\	8f#/J	.	8f#/	Ta	.	.	.
*	*	*v	*v	*	*	*	*	*	*
=19	=19	=19	=19	=19	=19	=19	=19	=19
!LO:TX:b:B:t=Bęben.	!	!	!	!	!	!	!	!
4.GG#Xtt</	8.g/L	4c#X\	.	8.g/	ra,	.	.	.
.	16e/Jk	.	.	16e/	ra,	.	.	.
.	8dL 8F#</	4ryy	.	8d,/	ra,	.	.	.
8AA/	8c#XJ 8Gn</	.	.	8c#X/	ra,	.	.	.
*	*v	*v	*	*	*	*	*	*
=20	=20	=20	=20	=20	=20	=20	=20
32C#X\LLL	4d 4F#</	.	4d/	ra.	.	.	.
32D\	.	.	.	.	.	.	.
32C#\	.	.	.	.	.	.	.
32D\JJ	.	.	.	.	.	.	.
8AA\J	.	.	.	.	.	.	.
8DD/	4r	.	4r	.	.	.	.
8r	.	.	.	.	.	.	.
=:|!	=:|!	=:|!	=:|!	=:|!	=:|!	=:|!	=:|!
*-	*-	*-	*-	*-	*-	*-	*-
!!!system-decoration: s1{(s2,s3)}
!!!RDF**kern: > = above
!!!RDF**kern: < = below
!!!RDF**kern: N = linked
!!!ENC: Andrzej Gręziak
!!!EED: Katarzyna Serwa
!!!END: 2025-03-27
!!!EEV: 2025-04-01
